X:1
T:Chop Sticks
T:Chopsticks
T:Euphemia Allen (1861–1949)
T:for Flute and Piano
%%score 1 { 2 | ( 3 4 ) }
L:1/8
Q:3/8=60
M:6/8
K:C
V:1 treble nm="Flute" snm="Fl."
V:2 treble nm="Piano" snm="Pno."
V:3 bass 
V:4 bass 
V:1
 .g.g.g .g.g.g | .g.g.g .g.g.g | .b.b.b .b.b.b | .c'.c'.c' .c'.b.a | .g.g.g .g.g.g | %5
 .g.g.g .g.g.g | .b.b.b .b.b.b | .c'.g.e c2 e' | d'2 c' b2 a | g2 g gag | f2 f fgf | e2 f g2 e' | %12
 d'2 c' b2 a | g2 g gag | f2 f fgf | e2 e .e3 | g2 f/e/ dcd | e2 c G3 | GBc d3 | Gcd e3 | %20
 g2 f/e/ dcd | e2 c G3 | GBd fed | c3- c2 z | .g.^g.a .=g.^g.a | .g.^g.a .=g.^g.a | %26
 .a._b.=b .a._b.=b | .c'.c'.c' .c'.b.a | .g.^g.a .=g.^g.a | .g.^g.a .=g.^g.a | .a._b.=b .a._b.=b | %31
 .c'.g.e c2 e | d2 c B2 A | .G2 (7:4:7G/A/B/c/d/e/f/.g G | .F2 (7:4:7F/G/A/B/c/d/e/.f F | %35
 .E2 (7:4:7E/F/G/A/B/c/d/.e e | d2 c B2 A | .G2 (7:4:7G/A/B/c/d/e/f/.g G | %38
 .F2 (7:4:7F/G/A/B/c/d/e/.f F | .E2 (7:4:7E/F/G/A/B/c/d/.e c | G3 G/B/d/f/d | G3 G/c/e/g/e | %42
 B3 G/B/d/f/d | c3 E/G/c/e/c | G3 G/B/d/f/d | G3 G/c/e/g/e | B3 G/B/d/f/d | c2 G .c3 | %48
 g2 f/e/ dcd | e2 c G3 | GBc d3 | Gcd e3 | g2 f/e/ dcd | e2 c G3 | GBd fed | c3- c2 z | %56
 d'/^c'/.d'b/_b/ .=bg/^f/.g | c'/b/.c'g/^f/ .ge/_e/.=e | b/a/.bf/e/ .fd/^c/.d | .c.e.a g3 | %60
 d'/^c'/.d'b/_b/ .=bg/^f/.g | c'/b/.c'g/^f/ .ge/_e/.=e | b/a/.bf/e/ .fd/^c/.d | .c.c'.b c'3 | %64
 .c.c'.b c'3 | .c.c'.b .c.c'.b | .c.c'.b .c'3 |] %67
V:2
 .[FG].[FG].[FG] .[FG].[FG].[FG] | .[EG].[EG].[EG] .[EG].[EG].[EG] | %2
 .[DB].[DB].[DB] .[DB].[DB].[DB] | .[Cc].[Cc].[Cc] .[Cc].[DB].[EA] | %4
 .[FG].[FG].[FG] .[FG].[FG].[FG] | .[EG].[EG].[EG] .[EG].[EG].[EG] | %6
 .[DB].[DB].[DB] .[DB].[DB].[DB] | .[Cc].G.E .C3 | .[FG].[FG].[FG] .[FG].[FG].[FG] | %9
 .[EG].[EG].[EG] .[EG].[EG].[EG] | .[DB].[DB].[DB] .[DB].[DB].[DB] | %11
 .[Cc].[Cc].[Cc] .[Cc].[DB].[EA] | .[FG].[FG].[FG] .[FG].[FG].[FG] | %13
 .[EG].[EG].[EG] .[EG].[EG].[EG] | .[DB].[DB].[DB] .[DB].[DB].[DB] | .[Cc].G.E .C3 | z FF z FF | %17
 z EE z EE | z FF z FF | z EE z EE | z FF z FF | z EE z EE | z FF z FF | z EE .[CE]3 | %24
 z G/A/B z G/A/B | z E/F/G z E/F/G | z B/c/d z B/c/d | z c/d/e z c/d/e | z G/A/B z G/A/B | %29
 z E/F/G z E/F/G | z B/c/d z B/c/d | .c.G.E .C3 | .[FG].[FG].[FG] .[FG].[FG].[FG] | %33
 .[EG].[EG].[EG] .[EG].[EG].[EG] | .[DB].[DB].[DB] .[DB].[DB].[DB] | %35
 .[Cc].[Cc].[Cc] .[Cc].[DB].[EA] | .[FG].[FG].[FG] .[FG].[FG].[FG] | %37
 .[EG].[EG].[EG] .[EG].[EG].[EG] | .[DB].[DB].[DB] .[DB].[DB].[DB] | .[Cc].G.E .C3 | %40
 .[FG].[FG].[FG] .[FG].[FG].[FG] | .[EG].[EG].[EG] .[EG].[EG].[EG] | %42
 .[DB].[DB].[DB] .[DB].[DB].[DB] | .[Cc].[Cc].[Cc] .[Cc].[DB].[EA] | %44
 .[FG].[FG].[FG] .[FG].[FG].[FG] | .[EG].[EG].[EG] .[EG].[EG].[EG] | %46
 .[DB].[DB].[DB] .[DB].[DB].[DB] | .[Cc].G.E .C3 | f/g/f/g/f/g/ f/g/f/g/f/g/ | %49
 e/g/e/g/e/g/ e/g/e/g/e/g/ | d/b/d/b/d/b/ d/b/d/b/d/b/ | c/c'/c/c'/c/c'/ c/c'/d/b/e/a/ | %52
 f/g/f/g/f/g/ f/g/f/g/f/g/ | e/g/e/g/e/g/ e/g/e/g/e/g/ | d/b/d/b/d/b/ d/b/d/b/d/b/ | c'ge c3 | %56
 .[FG].[FG].[FG] .[FG].[FG].[FG] | .[EG].[EG].[EG] .[EG].[EG].[EG] | %58
 .[DB].[DB].[DB] .[DB].[DB].[DB] | .[Cc].[Cc].[Cc] .[Cc].[DB].[EA] | %60
 .[FG].[FG].[FG] .[FG].[FG].[FG] | .[EG].[EG].[EG] .[EG].[EG].[EG] | %62
 .[DB].[DB].[DB] .[DB].[DB].[DB] | .[Cc].G.E .C3 | .[Cc].G.E .[E,C]3 | .[Cc].G.E .[Cc].G.E | %66
 .[Cc].G.E .C3 |] %67
V:3
 G,,.F,F, G,,.F,.F, | C,.E,E, C,.E,.E, | G,,.D,D, G,,.D,.D, | C,.C,C, C,.D,.E, | %4
 G,,.F,F, G,,.F,.F, | C,.E,E, C,.E,.E, | G,,.D,D, G,,.D,.D, | C,.E.G, .[C,E,]3 | %8
 G,,.F,F, G,,.F,.F, | C,.E,E, C,.E,.E, | G,,.D,D, G,,.D,.D, | C,.C,C, C,.D,.E, | %12
 G,,.F,F, G,,.F,.F, | C,.E,E, C,.E,.E, | G,,.D,D, G,,.D,.D, | C,.E.G, .[C,E,]3 | .G,,3 .G,,3 | %17
 .C,,3 .C,,3 | .G,,3 .G,,3 | .C,,3 .C,,3 | .G,,3 .G,,3 | .C,,3 .C,,3 | .G,,3 .G,,3 | .C,,3 z z2 | %24
 C,,3 G,,3 | C,,3 C,,3 | G,,3 G,,3 | C,,3 C,,3 | G,,3 G,,3 | C,,3 C,,3 | G,,3 G,,3 | C3 E,3 | %32
 G,,.F,F, G,,.F,.F, | C,.E,E, C,.E,.E, | G,,.D,D, G,,.D,.D, | C,.C,C, C,.D,.E, | %36
 G,,.F,F, G,,.F,.F, | C,.E,E, C,.E,.E, | G,,.D,D, G,,.D,.D, | C,.E.G, .[C,E,]3 | %40
 G,,.F,F, G,,.F,.F, | C,.E,E, C,.E,.E, | G,,.D,D, G,,.D,.D, | C,.C,C, C,.D,.E, | %44
 G,,.F,F, G,,.F,.F, | C,.E,E, C,.E,.E, | G,,.D,D, G,,.D,.D, | C,.E.G, .[C,E,]3 | z F,F, z F,F, | %49
 z E,E, z E,E, | z F,F, z F,F, | z E,E, z E,E, | z F,F, z F,F, | z E,E, z E,E, | z F,F, z F,F, | %55
 z E,E, .[C,E,]3 | G,,.F,F, G,,.F,.F, | C,.E,E, C,.E,.E, | G,,.D,D, G,,.D,.D, | C,.C,C, C,.D,.E, | %60
 G,,.F,F, G,,.F,.F, | C,.E,E, C,.E,.E, | G,,.D,D, G,,.D,.D, | C,.E.G, .[C,E,]3 | C,.E.G, .C,3 | %65
 C,.E.G, C,.E.G, | C,.E.G, .[C,E,]3 |] %67
V:4
 x6 | x6 | x6 | x6 | x6 | x6 | x6 | x6 | x6 | x6 | x6 | x6 | x6 | x6 | x6 | x6 | x6 | x6 | x6 | %19
 x6 | x6 | x6 | x6 | x6 | x6 | x6 | x6 | x6 | x6 | x6 | x6 | x6 | x6 | x6 | x6 | x6 | x6 | x6 | %38
 x6 | x6 | x6 | x6 | x6 | x6 | x6 | x6 | x6 | x6 | .G,,3 .G,,3 | .C,,3 .C,,3 | .G,,3 .G,,3 | %51
 .C,,3 .C,,3 | .G,,3 .G,,3 | .C,,3 .C,,3 | .G,,3 .G,,3 | .C,,3 x3 | x6 | x6 | x6 | x6 | x6 | x6 | %62
 x6 | x6 | x6 | x6 | x6 |] %67

